icons/svg/shopping/fabric.svg

<?xml version="1.0" encoding="UTF-8" standalone="no"?>
<!-- Created with Inkscape (http://www.inkscape.org/) -->

<svg
   xmlns:dc="http://purl.org/dc/elements/1.1/"
   xmlns:cc="http://creativecommons.org/ns#"
   xmlns:rdf="http://www.w3.org/1999/02/22-rdf-syntax-ns#"
   xmlns:svg="http://www.w3.org/2000/svg"
   xmlns="http://www.w3.org/2000/svg"
   xmlns:sodipodi="http://sodipodi.sourceforge.net/DTD/sodipodi-0.dtd"
   xmlns:inkscape="http://www.inkscape.org/namespaces/inkscape"
   version="1.0"
   width="580"
   height="580"
   id="svg2"
   sodipodi:version="0.32"
   inkscape:version="0.48.4 r9939"
   sodipodi:docname="curtains.svg"
   inkscape:output_extension="org.inkscape.output.svg.inkscape">
  <metadata
     id="metadata10">
    <rdf:RDF>
      <cc:Work
         rdf:about="">
        <dc:format>image/svg+xml</dc:format>
        <dc:type
           rdf:resource="http://purl.org/dc/dcmitype/StillImage" />
        <cc:license
           rdf:resource="http://web.resource.org/cc/PublicDomain" />
        <dc:language>en</dc:language>
        <dc:title></dc:title>
      </cc:Work>
    </rdf:RDF>
  </metadata>
  <sodipodi:namedview
     inkscape:window-height="739"
     inkscape:window-width="1332"
     inkscape:pageshadow="2"
     inkscape:pageopacity="0.0"
     guidetolerance="10.0"
     gridtolerance="10.0"
     objecttolerance="10.0"
     borderopacity="1.0"
     bordercolor="#666666"
     pagecolor="#ffffff"
     id="base"
     showgrid="false"
     inkscape:zoom="0.50000001"
     inkscape:cx="62.667326"
     inkscape:cy="266.75742"
     inkscape:window-x="34"
     inkscape:window-y="1024"
     inkscape:current-layer="svg2"
     inkscape:window-maximized="1" />
  <defs
     id="defs4">
    <clipPath
       id="clipoutline2"
       clipPathUnits="userSpaceOnUse">
      <path
         d="M 55.8,12 L 56.56,12.16 C 65.4,9.22 85.24,20.8 80.82,31.12 C 79.7,32.74 79.89,35.62 81.24,37.43 L 56.43,62.25 C 55.04,60.86 51.95,60.89 50.53,62.25 L 9.5,101.63 C 5.76,105.22 8.7,108.27 10.28,109.88 L 17.64,117.24 C 19.25,118.84 23.5,121 26.52,117.8 L 65.24,76.99 C 66.59,75.57 66.6,72.52 65.24,71.12 C 65.24,71.12 65.25,71.1 65.24,71.1 L 90.15,46.2 C 92.78,48.57 95.263827,48.774854 97.62,48.13 C 102.17057,46.884568 104.70725,51.336643 107.43,54.59 L 106.2,55.8 C 104.38,57.64 104.55,60.74 106.59,62.78 C 108.63,64.82 111.74,64.99 113.56,63.17 L 121.7,55.04 C 123.52,53.2 123.35,50.1 121.3,48.07 C 119.46,46.22 116.79,45.98 114.93,47.3 C 109.35,41.04 112.28,40.1 104.92,31.95 L 91.13,17.86 C 81.2,8.12 68.3,8.13 55.8,12 z"
         id="outline2" />
    </clipPath>
    <clipPath
       id="clipoutline1"
       clipPathUnits="userSpaceOnUse">
      <path
         d="M 22.42,17.2 L 35.38,30.15 L 32.88,38.93 L 24.1,41.43 L 11.14,28.47 L 5.28,34.33 L 20.17,55.79 L 37.73,52.45 L 99.36,118.07 C 108.8,127.58 121.53,113.32 112.7,105.2 L 46.85,42.92 L 50.86,25.16 L 28.72,10.89 L 22.42,17.2 z M 103.48,109.17 C 105.16,107.49 107.88,107.49 109.56,109.17 C 111.24,110.85 111.24,113.57 109.56,115.25 C 107.88,116.92 105.16,116.92 103.48,115.25 C 101.8,113.57 101.8,110.85 103.48,109.17 z"
         id="outline1" />
    </clipPath>
    <inkscape:perspective
       sodipodi:type="inkscape:persp3d"
       inkscape:vp_x="0 : 290 : 1"
       inkscape:vp_y="0 : 1000 : 0"
       inkscape:vp_z="580 : 290 : 1"
       inkscape:persp3d-origin="290 : 193.33333 : 1"
       id="perspective12" />
    <style
       type="text/css"
       id="style6">
   
    .fil0 {fill:#EF7900}
   
  </style>
    <inkscape:perspective
       id="perspective6807"
       inkscape:persp3d-origin="29.116032 : 19.410688 : 1"
       inkscape:vp_z="58.232063 : 29.116032 : 1"
       inkscape:vp_y="0 : 1000 : 0"
       inkscape:vp_x="0 : 29.116032 : 1"
       sodipodi:type="inkscape:persp3d" />
    <inkscape:perspective
       id="perspective6954"
       inkscape:persp3d-origin="290 : 193.33333 : 1"
       inkscape:vp_z="580 : 290 : 1"
       inkscape:vp_y="0 : 1000 : 0"
       inkscape:vp_x="0 : 290 : 1"
       sodipodi:type="inkscape:persp3d" />
    <marker
       viewBox="0 0 10 10"
       refY="5"
       refX="10"
       orient="auto"
       markerWidth="4"
       markerUnits="strokeWidth"
       markerHeight="3"
       id="ArrowStart">
      <path
         id="path2295"
         d="M 10 0 L 0 5 L 10 10 z" />
    </marker>
    <marker
       viewBox="0 0 10 10"
       refY="5"
       refX="0"
       orient="auto"
       markerWidth="4"
       markerUnits="strokeWidth"
       markerHeight="3"
       id="ArrowEnd">
      <path
         id="path2292"
         d="M 0 0 L 10 5 L 0 10 z" />
    </marker>
    <inkscape:perspective
       id="perspective7597"
       inkscape:persp3d-origin="178.5405 : 158.483 : 1"
       inkscape:vp_z="357.08099 : 237.7245 : 1"
       inkscape:vp_y="0 : 1000 : 0"
       inkscape:vp_x="0 : 237.7245 : 1"
       sodipodi:type="inkscape:persp3d" />
  </defs>
  <g
     id="g1327"
     transform="translate(0.5,-0.5)">
    <path
       d="M 66.275,1.768 C 24.94,1.768 1.704,23.139 1.704,66.804 l 0,450.123 c 0,40.844 20.894,62.229 62.192,62.229 l 452.024,0 c 41.307,0 62.229,-20.316 62.229,-62.229 l 0,-450.123 c 0,-42.601 -20.922,-65.036 -63.522,-65.036 -0.003,0 -448.494,-0.143 -448.352,0 z"
       style="fill:#111111;stroke:#eeeeee;stroke-width:3.40799999"
       id="path1329"
       inkscape:connector-curvature="0" />
  </g>
  <g
     id="g2319"
     transform="translate(879.29125,36.805119)">
    <path
       id="path2323"
       style="fill:#ffffff;stroke:none"
       d="" />
  </g>
  <g
     id="g2325"
     transform="translate(879.29125,36.805119)">
    <path
       id="path2329"
       style="fill:#ffffff;stroke:none"
       d="" />
  </g>
  <path
     stroke-miterlimit="10"
     d="m 399.2952,224.47984 c 9.90022,-59.46141 -27.91308,-103.02334 -129.96632,-103.87978 -59.81886,0 -109.52134,23.76578 -109.52134,60.77119 0,40.98457 50.34073,64.10468 93.61405,64.10468 45.6842,0 100.54351,-9.8404 100.54351,-43.27504 0,-38.38346 -62.87869,-38.8209 -86.39194,-38.8209 -21.63666,0 -63.50199,7.56414 -63.50199,20.64771 0,13.08336 49.48396,27.08104 84.27779,18.17319"
     id="path3"
     inkscape:connector-curvature="0"
     style="fill:none;stroke:#ffffff;stroke-width:28.84992027;stroke-linecap:round;stroke-linejoin:round;stroke-miterlimit:10;stroke-opacity:1"
     sodipodi:nodetypes="ccsssssc" />
  <path
     d="m 411.87778,228.90937 c 0,0 35.26874,-111.08035 -5.58542,-158.828723 -30.24756,-25.12096 -76.09074,-26.686225 -112.8777,-26.770405 -36.78491,-0.0848 -60.45081,-6.95049 -92.57078,28.34439 -17.42552,19.14582 -51.55994,94.178668 -51.55994,94.178668 0,0 57.02208,-45.61385 118.27443,-44.50212 114.35797,2.07588 110.49456,29.14293 144.31941,107.57819 z"
     id="path5"
     inkscape:connector-curvature="0"
     style="fill:#ffffff;fill-opacity:1"
     sodipodi:nodetypes="cczscsc" />
  <path
     stroke-miterlimit="10"
     d="m 399.2952,496.47983 c 9.90022,-59.46141 -27.91308,-103.02334 -129.96632,-103.87978 -59.81886,0 -109.52134,23.76578 -109.52134,60.77119 0,40.98457 50.34073,64.10468 93.61405,64.10468 45.6842,0 100.54351,-9.8404 100.54351,-43.27504 0,-38.38346 -62.87869,-38.8209 -86.39194,-38.8209 -21.63666,0 -63.50199,7.56414 -63.50199,20.64771 0,13.08336 49.48396,27.08104 84.27779,18.17319"
     id="path3-7"
     inkscape:connector-curvature="0"
     style="fill:none;stroke:#ffffff;stroke-width:28.84992027;stroke-linecap:round;stroke-linejoin:round;stroke-miterlimit:10;stroke-opacity:1"
     sodipodi:nodetypes="ccsssssc" />
  <path
     d="m 411.87778,500.90936 c 0,0 35.26874,-111.08035 -5.58542,-158.82872 -30.24756,-25.12096 -76.09074,-26.68622 -112.8777,-26.7704 -36.78491,-0.0848 -60.45081,-6.95049 -92.57078,28.34439 -17.42552,19.14582 -51.55994,94.17866 -51.55994,94.17866 0,0 57.02208,-45.61385 118.27443,-44.50212 114.35797,2.07588 110.49456,29.14293 144.31941,107.57819 z"
     id="path5-9"
     inkscape:connector-curvature="0"
     style="fill:#ffffff;fill-opacity:1"
     sodipodi:nodetypes="cczscsc" />
</svg>

<svg width="580" height="580" viewBox="0 0 580 580" fill="none" xmlns="http://www.w3.org/2000/svg">
<g clip-path="url(#clip0)">
<path d="M66.7751 1.26766C25.4401 1.26766 2.2041 22.6387 2.2041 66.3037V516.427C2.2041 557.271 23.0981 578.656 64.3961 578.656H516.42C557.727 578.656 578.649 558.34 578.649 516.427V66.3037C578.649 23.7027 557.727 1.26766 515.127 1.26766C515.124 1.26766 66.6331 1.12466 66.7751 1.26766V1.26766Z" fill="#111111" stroke="#EEEEEE" stroke-width="3.408"/>
<path d="M399.295 224.479C409.195 165.018 371.382 121.456 269.329 120.6C209.51 120.6 159.808 144.365 159.808 181.371C159.808 222.355 210.148 245.475 253.422 245.475C299.106 245.475 353.965 235.635 353.965 202.2C353.965 163.817 291.086 163.38 267.573 163.38C245.937 163.38 204.071 170.944 204.071 184.027C204.071 197.111 253.555 211.108 288.349 202.2" stroke="white" stroke-width="28.8499" stroke-miterlimit="10" stroke-linecap="round" stroke-linejoin="round"/>
<path d="M411.878 228.91C411.878 228.91 447.147 117.829 406.293 70.0811C376.045 44.9602 330.202 43.3949 293.415 43.3107C256.63 43.2259 232.964 36.3602 200.844 71.6551C183.419 90.8009 149.284 165.834 149.284 165.834C149.284 165.834 206.306 120.22 267.559 121.332C381.917 123.408 378.053 150.475 411.878 228.91V228.91Z" fill="white"/>
<path d="M399.295 496.479C409.195 437.018 371.382 393.456 269.329 392.6C209.51 392.6 159.808 416.365 159.808 453.371C159.808 494.355 210.148 517.475 253.422 517.475C299.106 517.475 353.965 507.635 353.965 474.2C353.965 435.817 291.086 435.38 267.573 435.38C245.937 435.38 204.071 442.944 204.071 456.027C204.071 469.111 253.555 483.108 288.349 474.2" stroke="white" stroke-width="28.8499" stroke-miterlimit="10" stroke-linecap="round" stroke-linejoin="round"/>
<path d="M411.878 500.91C411.878 500.91 447.147 389.829 406.293 342.081C376.045 316.96 330.202 315.395 293.415 315.311C256.63 315.226 232.964 308.36 200.844 343.655C183.419 362.801 149.284 437.834 149.284 437.834C149.284 437.834 206.306 392.22 267.559 393.332C381.917 395.408 378.053 422.475 411.878 500.91Z" fill="white"/>
</g>
<defs>
<clipPath id="clip0">
<path d="M0 0H580V580H0V0Z" fill="white"/>
</clipPath>
</defs>
</svg>
